X: 261
T: Ben Seni Sevdim Seveli
C: Dede Efendi
O: Turkey
F: http://compmusic.upf.edu/node/140
N: bestenigar--sarki--kapali_curcuna--ben_seni--dede_efendi
N: makam= bestenigar
N: form= sarki
N: usul= kapali_curcuna = 10/8
M: 10/8
L: 1/16
K: C _2/4B _3/4d  
Q: 1/4=222
%%MIDI tuningsystem comma53
d8-d2c8-c2  | _1/4B8-_1/4B2A8-A2  | c8-c2_1/4B8-_1/4B2  | \
w:  ARANAĞME  |   |   | 
A4 {d}c2_1/4B2 A2A2 G2^F6  | ^F2G2 A2{_1/4B}A2 G2A2 B2c2 c2B2  | 
w:   |   | 
c2d2 e2f2 a2g2 f2e4d2  | c4 d3c _1/4B2A2 B2c6  | \
w:   |   | 
d8-d2c8-c2  | _1/4B8-_1/4B2A8-A2  | 
w:  ARANAĞME  |   | 
c8-c2_1/4B8-_1/4B2  | A4 {d}c2_1/4B2 A2A2 G2^F6  | \
w:   |   | 
^F2G2 A2{_1/4B}A2 G2A2 B2c2 c2B2  | 
w:   | 
A4 d2c2 _1/4B2B2 A2A4G2  | A4 _1/4B2A2 G2G2 ^F2F6  | \
w:   |   | 
c6c4c4c4d2  | e4 d2d4d2 c2c4_1/4B2  | 
w:  Ben  se ni  sev  |  dim  *  se ve *  li   | 
c6d4e4f2 _7/8a4  | g4 f2e4d4c4_1/4B2  | \
w:  kay na yıp  coş  |  tum    | 
e4 d2d2 c2c2 _1/4B2e2 d2c2  | c4 d3c _1/4B2A2 G2^F4z2  | 
w:  kay *  na *  yıp  *  coş  |  tum   SAZ  | 
c6c4c4c4d2  | e4 d2d4d2 c2c4_1/4B2  | \
w:  Ben  se ni  sev  |  dim  *  se ve *  li   | 
c6d4e4f2 _7/8a4  | g4 f2e4d4c4_1/4B2  | 
w:  kay na yıp  coş  |  tum    | 
e4 d2d2 c2c2 _1/4B2e2 d2c2  | c4 d3c _1/4B2A2 B2c4z2  | \
w:  kay *  na *  yıp  *  coş  |  tum   SAZ  | 
d6d4d4d4c2  | 
w:  Ak lı mı  yağ  | 
c4 _1/4B2d4c2 B2B4A2  | A4 _1/4B2c4B2 A2A2 G2^F2  | \
w:  ma *  ya  ve *  rip   |  fik *  ri mi  *  şaş  | 
e2d2 c2_1/4B2 d2c2 d2c4B2  | 
w:  tım    | 
e4 d2d4d4d4c2  | c4 _1/4B2d4c2 B2B4A2  | \
w:  Ak *  lı mı  yağ  |  ma *  ya  ve *  rip   | 
A4 _1/4B2c4B2 A2A2 G2^F2  | 
w:  fik *  ri mi  *  şaş  | 
^F4 g3^f ^e2=d2 e2f4z2  | =d4 ^e2^f2 g2f2 e2f6  | \
w:  tım   SAZ  |  Mec *  nû *  na  *  şim  | 
^e4 ^f2g4f2 e2=d4^c2  | 
w:  di  *  eş_ o *  lup   | 
=d6^e4^f4g4f2  | a4 g2^f4^e4=d4^c2  | \
w:  dağ la ra  düş  |  tüm    | 
=d6^e4d4{a}g4^f2  | ^f4 g3f ^e2f2 g2a4z2  | 
w:  dağ la ra  *  düş  |  tüm   SAZ  | 
g6a4a4a4g2  | ^f2^e2 f2g4=f2 =e2d2 c2_1/4B2  | \
w:  Mec nû na  şim  |  di  *  *  eş_ o *  lup   | 
c6d4c4a6  | g4 f2e4d4c4_1/4B2  | 
w:  dağ la ra  düş  |  tüm    | 
e4 d2d2 c2c2 _1/4B2e2 d2c2  | c4 d3c _1/4B2A2 B2c4z2  | \
w:  dağ *  la *  ra  *  düş  |  tüm   SAZ  | 
d6d4d4d4c2  | 
w:  Ak lı mı  yağ  | 
c4 _1/4B2d4c2 B2B4A2  | A4 _1/4B2c4B2 A2A2 G2^F2  | \
w:  ma *  ya  ve *  rip   |  fik *  ri mi  *  şaş  | 
e2d2 c2_1/4B2 d2c2 d2c4B2  | 
w:  tım    | 
e4 d2d4d4d4c2  | c4 _1/4B2d4c2 B2B4A2  | \
w:  Ak *  lı mı  yağ  |  ma *  ya  ve *  rip   | 
A4 _1/4B2c4B2 A2A2 G2^F2  | 
w:  fik *  ri mi  *  şaş  | 
^F4 |
w:  tım    | 


